brandFactory_export/2.Regular/Detalle de llamadas_2Regular.svg

<?xml version="1.0" encoding="UTF-8"?>
<svg width="24px" height="24px" viewBox="0 0 24 24" version="1.1" xmlns="http://www.w3.org/2000/svg" xmlns:xlink="http://www.w3.org/1999/xlink">
    <title>2.Regular/Detalle de llamadas_2Regular</title>
    <g id="Symbols" stroke="none" stroke-width="1" fill="none" fill-rule="evenodd">
        <g id="2.Regular/Detalle-de-llamadas_2Regular" fill="#5CB615" fill-rule="nonzero">
            <path d="M16.5260504,1.24344979e-13 C16.697479,1.24344979e-13 16.8655462,0.0672268908 16.989916,0.18487395 L23.5445378,6.40336134 C23.6789916,6.53109244 23.7529412,6.70588235 23.7529412,6.8907563 L23.7529412,22.302521 C23.7529412,23.0084034 23.1310924,23.6302521 22.4252101,23.6302521 L7.66890756,23.6302521 C6.96302521,23.6302521 6.34117647,23.0084034 6.34117647,22.302521 L6.34117647,16.4 C6.34117647,16.2906551 6.36763353,16.1871895 6.41446223,16.0956886 C6.35986712,16.0417858 6.30344592,15.9857989 6.24705882,15.9294118 L6.16638655,15.8487395 C3.99831933,13.6806723 2.42521008,11.4621849 1.61512605,9.42857143 C0.828571429,7.45210084 0.815126051,5.75462185 1.58151261,4.6487395 C1.58823529,4.63865546 1.59495798,4.63193277 1.60168067,4.62184874 L1.61176471,4.60840336 C1.70252101,4.48067227 1.97815126,4.10084034 2.27058824,3.82184874 C3.10420168,3.02521008 3.95798319,2.63193277 4.80840336,2.6487395 C5.32765268,2.65933642 5.84022045,2.82093618 6.34105129,3.13185365 L6.34117647,1.32773109 C6.34117647,0.645378151 6.98655462,1.24344979e-13 7.66890756,1.24344979e-13 L16.5260504,1.24344979e-13 Z M15.5168327,1.344 L7.71260504,1.34453782 C7.70252101,1.3512605 7.69243698,1.36134454 7.68571429,1.37142857 L7.68507009,4.37704168 C7.78284932,4.50786736 7.87396718,4.64361829 7.95798319,4.78319328 C8.79495798,6.13445378 8.54621849,7.58319328 7.26218487,8.87058824 C7.12436975,9.00840336 6.97983193,9.1394958 6.82857143,9.2605042 C6.82521008,9.33781513 6.86218487,9.67058824 7.43361345,10.4436975 C7.92184874,11.1054622 8.61853992,11.8418592 9.17240021,12.4006828 L9.47731092,12.7058824 C10.0521008,13.2806723 10.9058824,14.1142857 11.6621849,14.6722689 C12.4352941,15.2436975 12.7680672,15.2806723 12.8453782,15.2773109 C12.9663866,15.1260504 13.097479,14.9815126 13.2352941,14.8436975 C14.5193277,13.5563025 15.9680672,13.3109244 17.3193277,14.1445378 C17.6689076,14.3529412 17.9882353,14.605042 18.2705882,14.8941176 C19.0403361,15.6638655 19.4403361,16.4705882 19.4537815,17.2941176 C19.4705882,18.1445378 19.0739496,19.0016807 18.2806723,19.8319328 C18.0016807,20.1243697 17.6184874,20.4 17.4941176,20.4907563 L17.4806723,20.5008403 L17.4537815,20.5210084 C16.9058824,20.897479 16.2168067,21.0857143 15.4235294,21.0857143 C14.6033613,21.0857143 13.6722689,20.8840336 12.6672269,20.4840336 C11.0817927,19.8524805 9.38399244,18.7551188 7.68531979,17.2747724 L7.68571429,22.2722689 C7.68907563,22.2789916 7.69579832,22.2823529 7.69915966,22.2857143 L22.4016807,22.2857143 L22.4084034,22.2789916 L22.4078327,8.218 L19.4672269,8.21848739 C18.3210084,8.21848739 17.3327731,7.83865546 16.6168067,7.11932773 C15.9008403,6.4 15.5176471,5.41512605 15.5176471,4.26890756 L15.5168327,1.344 Z M3.19831933,4.79327731 C3.10756303,4.88067227 2.94621849,5.05546218 2.70084034,5.39495798 L2.68067227,5.42521008 C2.19663866,6.14117647 2.26386555,7.41848739 2.86554622,8.93445378 C3.80336134,11.287395 5.69579832,13.4756303 7.11764706,14.9008403 L7.15462185,14.9344538 L7.16806723,14.9478992 L7.20504202,14.9848739 C8.62689076,16.4067227 10.8151261,18.2991597 13.1680672,19.2369748 C14.6806723,19.8420168 15.9579832,19.9092437 16.6773109,19.4218487 L16.707563,19.4016807 C17.0436975,19.1596639 17.2218487,18.9983193 17.3092437,18.9042017 C18.3747899,17.7882353 18.3781513,16.9008403 17.3193277,15.8453782 C17.1142857,15.6369748 16.8857143,15.4554622 16.6369748,15.3042017 L16.6168067,15.2941176 C16.1058824,14.9747899 15.2957983,14.6789916 14.1831933,15.794958 C14.0554622,15.9193277 13.9378151,16.0537815 13.8302521,16.194958 C13.8067227,16.2218487 13.7831933,16.2487395 13.7596639,16.2722689 C13.5109244,16.5008403 13.0672269,16.7394958 12.3747899,16.5613445 C12.0016807,16.4672269 11.5882353,16.2621849 11.1109244,15.9327731 C10.4218487,15.4621849 9.62521008,14.7596639 8.52268908,13.6571429 L8.44537815,13.5798319 C7.34285714,12.4773109 6.64369748,11.6806723 6.1697479,10.9915887 C5.84033613,10.5142857 5.63529412,10.1008403 5.54117647,9.72773109 C5.36638655,9.03529412 5.60168067,8.59159664 5.8302521,8.34285714 C5.85378151,8.31596639 5.88067227,8.29243697 5.90756303,8.27226891 C6.0487395,8.16470588 6.18319328,8.04705882 6.30756303,7.91932773 C7.42016807,6.80672269 7.12773109,5.99663866 6.80840336,5.48571429 L6.79831933,5.46554622 C6.64705882,5.21680672 6.46554622,4.98487395 6.25714286,4.78319328 C5.19831933,3.72436975 4.31428571,3.72773109 3.19831933,4.79327731 Z M22.0848327,6.873 L16.8618327,1.918 L16.8621849,4.26890756 C16.8621849,5.05210084 17.107563,5.70756303 17.5680672,6.16806723 C18.0285714,6.62857143 18.687395,6.87394958 19.4672269,6.87394958 L22.0848327,6.873 Z" id="Detalle-de-llamadas_2Regular"></path>
        </g>
    </g>
</svg>

<svg width="24" height="24" viewBox="0 0 24 24" xmlns="http://www.w3.org/2000/svg"><path d="M16.526 0a.68.68 0 01.464.185l6.555 6.218a.669.669 0 01.208.488v15.412c0 .705-.622 1.327-1.328 1.327H7.67c-.706 0-1.328-.622-1.328-1.327V16.4c0-.11.027-.213.073-.304a37.13 37.13 0 01-.167-.167l-.08-.08c-2.169-2.168-3.742-4.387-4.552-6.42-.786-1.977-.8-3.674-.033-4.78.006-.01.013-.017.02-.027l.01-.014a5.92 5.92 0 01.659-.786c.833-.797 1.687-1.19 2.537-1.173.52.01 1.032.172 1.533.483V1.328C6.341.645 6.987 0 7.67 0h8.857zm-1.01 1.344H7.714a.102.102 0 00-.027.027v3.006c.097.13.188.267.272.406.837 1.351.588 2.8-.696 4.088a5.28 5.28 0 01-.433.39c-.004.077.033.41.605 1.183.488.661 1.185 1.398 1.738 1.957l.305.305c.575.575 1.429 1.408 2.185 1.966.773.572 1.106.609 1.183.605a5.28 5.28 0 01.39-.433c1.284-1.288 2.733-1.533 4.084-.7.35.209.67.461.952.75.77.77 1.17 1.577 1.183 2.4.017.85-.38 1.708-1.173 2.538-.28.292-.663.568-.787.659l-.013.01-.027.02c-.548.376-1.237.565-2.03.565-.82 0-1.752-.202-2.757-.602-1.585-.632-3.283-1.729-4.982-3.21v4.998c.004.007.01.01.014.014h14.703l.006-.007V8.218h-2.94c-1.147 0-2.135-.38-2.851-1.099-.716-.719-1.1-1.704-1.1-2.85V1.344zM3.199 4.794a4.52 4.52 0 00-.497.601l-.02.03c-.484.716-.417 1.993.185 3.51.937 2.352 2.83 4.54 4.252 5.966l.037.033.013.014.037.037c1.422 1.422 3.61 3.314 5.963 4.252 1.513.605 2.79.672 3.51.185l.03-.02c.336-.242.514-.404.601-.498 1.066-1.116 1.07-2.003.01-3.059a3.529 3.529 0 00-.682-.54l-.02-.01c-.511-.32-1.321-.616-2.434.5a3.62 3.62 0 00-.353.4c-.023.027-.047.054-.07.077-.25.229-.693.467-1.385.29-.373-.095-.787-.3-1.264-.63-.69-.47-1.486-1.172-2.588-2.275l-.078-.077c-1.102-1.103-1.801-1.9-2.275-2.588-.33-.478-.535-.891-.629-1.264-.175-.693.06-1.136.29-1.385a.506.506 0 01.077-.07 3.62 3.62 0 00.4-.354c1.112-1.112.82-1.922.5-2.433l-.01-.02a3.43 3.43 0 00-.54-.683c-1.06-1.059-1.944-1.055-3.06.01zm18.887 2.079l-5.223-4.955v2.35c0 .784.246 1.44.706 1.9.46.46 1.12.706 1.9.706l2.617-.001z" fill="#5CB615" fill-rule="nonzero"/></svg>
